img/c1.svg

<svg width="130" height="90" viewBox="0 0 130 90" fill="none" xmlns="http://www.w3.org/2000/svg">
<g clip-path="url(#clip0)">
<path d="M42.0848 65.7396C43.7904 64.2441 43.9579 61.6548 42.4591 59.9535L42.2326 59.6944C41.5131 58.8798 40.4971 58.3854 39.4102 58.3206C39.3197 58.3206 39.2289 58.3206 39.1364 58.3206C38.1384 58.3189 37.1745 58.6814 36.4262 59.3394L30.9112 64.1638L25.8887 68.5566C24.1881 70.054 24.0217 72.6392 25.5164 74.3408L25.7467 74.6037C27.2486 76.3025 29.847 76.4695 31.5551 74.9767L35.4157 71.6008L42.0848 65.7396Z" fill="url(#paint0_linear)"/>
<path d="M56.8748 75.9929C55.8767 75.9915 54.9122 76.3529 54.1625 77.0095L48.7243 81.7672C47.0153 83.2616 46.8456 85.8535 48.345 87.5564C49.8446 89.2594 52.4456 89.4285 54.1545 87.9344L59.5928 83.1767C61.3017 81.6842 61.4728 79.0937 59.9751 77.3908C59.1925 76.5008 58.0621 75.9913 56.8748 75.9929Z" fill="url(#paint1_linear)"/>
<path d="M11.6348 3.23865L0.577179 51.3104L9.417 56.2604L32.2924 19.1803L11.6348 3.23865Z" fill="url(#paint2_linear)"/>
<path d="M29.2919 60.1575C31.0003 58.6623 31.1695 56.0705 29.6701 54.3675L29.5992 54.287C28.8814 53.4676 27.8643 52.9686 26.7749 52.9013C26.6844 52.9013 26.5936 52.9013 26.5011 52.9013C25.5031 52.8996 24.5391 53.2621 23.7908 53.9201L17.1865 59.6828C15.4781 61.178 15.309 63.7698 16.8083 65.4728C18.2781 67.2155 20.8873 67.4406 22.6361 65.9757C22.6541 65.9605 22.6721 65.9454 22.6898 65.9299L23.1901 65.4921L28.2167 61.0955L29.2919 60.1575Z" fill="url(#paint3_linear)"/>
<path d="M52.2994 71.6416C52.3739 70.5552 52.0084 69.4842 51.285 68.6679L51.2261 68.6011C50.5077 67.7873 49.4931 67.293 48.4076 67.2273C48.317 67.2273 48.2243 67.2273 48.1338 67.2273C47.1357 67.2256 46.1718 67.5879 45.4235 68.2461L44.7773 68.8114L38.1041 74.6486L36.3315 76.1913C34.6198 77.7348 34.488 80.3685 36.0366 82.074C36.7592 82.8699 37.7625 83.3571 38.8369 83.4338C39.9274 83.5094 41.0026 83.1452 41.8209 82.423L50.9069 74.4759C51.7341 73.7556 52.236 72.7343 52.2994 71.6416Z" fill="url(#paint4_linear)"/>
<path d="M106.738 58.5324L74.6843 32.5043C62.4094 38.9992 53.7174 35.6565 49.5615 33.0128C47.3952 31.6042 46.785 28.7119 48.1986 26.5532C48.6376 25.8825 49.2428 25.3358 49.9554 24.9655L60.6387 19.311C60.363 19.2698 60.093 19.2345 59.8508 19.2108C50.2098 20.7287 40.4733 21.5643 30.7138 21.7113L12.0378 51.9807L16.2015 55.1428L21.0961 50.8601C24.4943 47.8873 29.6676 48.2225 32.6509 51.6088C32.6511 51.6091 32.6514 51.6097 32.652 51.6099L32.7228 51.6905C33.7023 52.8097 34.3537 54.1758 34.6059 55.6396C36.0901 54.6305 37.8713 54.1469 39.6641 54.2658C41.8326 54.4004 43.8569 55.3941 45.2854 57.0253L45.5157 57.2882C46.9517 58.9107 47.6773 61.0376 47.5305 63.1961V63.2079C47.9054 63.1699 48.2824 63.1575 48.6592 63.1707C50.8277 63.3056 52.8517 64.2993 54.2805 65.9303L52.8091 67.3356L54.3395 65.997C55.7776 67.62 56.5046 69.7486 56.3585 71.9087C56.3585 71.9363 56.3466 71.9617 56.3446 71.9893C60.8292 71.6712 64.7232 75.0363 65.0424 79.5052C65.069 79.8781 65.0698 80.2525 65.0446 80.6255C64.9436 82.0291 64.4766 83.3823 63.6895 84.5509L72.472 89.601C74.3974 90.6891 76.8425 90.0435 77.9751 88.1486C79.0492 86.3399 78.5254 84.0104 76.7794 82.8314L62.795 73.1747C62.7831 73.1747 62.7773 73.1532 62.7673 73.1452L61.8258 72.4955C60.9122 71.8414 60.7038 70.5735 61.3601 69.6631C62.0002 68.7751 63.2313 68.5522 64.1441 69.1588L83.8682 82.7745C85.6876 84.0311 88.1847 83.5801 89.4457 81.767C89.4465 81.7659 89.4474 81.7648 89.4482 81.7637C90.686 79.9609 90.248 77.5029 88.4635 76.2347L68.836 62.3618C68.8241 62.3618 68.8202 62.3403 68.8083 62.3323C67.8914 61.6818 67.6771 60.4139 68.3296 59.4999C68.9822 58.586 70.2548 58.3727 71.172 59.0229L93.1767 74.5797C95.1013 75.934 97.7634 75.4771 99.1224 73.559C100.438 71.7026 100.055 69.1434 98.2543 67.7494L74.5771 50.7481C73.6414 50.126 73.3889 48.8661 74.0132 47.9337C74.6375 47.0012 75.9018 46.7496 76.8375 47.3717C76.8727 47.3951 76.907 47.4194 76.9408 47.4451L78.5598 48.5952H78.5814L100.525 64.3503C100.566 64.3798 100.596 64.4171 100.635 64.4466L100.998 64.7057C101.067 64.7531 101.133 64.8047 101.195 64.8607L101.589 65.1297C103.423 66.4392 105.965 66.0892 107.373 64.3327C108.216 63.2719 108.489 61.8694 108.104 60.572C107.871 59.7681 107.393 59.056 106.738 58.5324Z" fill="url(#paint5_linear)"/>
<path d="M118.91 0.053833L98.2567 15.9955L117.362 46.962C117.488 47.0268 117.606 47.1052 117.715 47.1956C118.043 47.5319 118.24 47.9725 118.274 48.4401L121.136 53.0781L129.968 48.1262L118.91 0.053833Z" fill="url(#paint6_linear)"/>
<path d="M98.1527 21.4931C94.1462 23.1368 89.6821 23.2985 85.5666 21.9486L74.7239 18.4412C73.2253 17.9678 71.5991 18.109 70.2055 18.8337L66.5302 20.7789C66.4909 20.7985 66.4574 20.8222 66.4158 20.8399L51.8523 28.5497C51.645 28.6487 51.5099 28.8546 51.5018 29.0835C51.4858 29.2907 51.5868 29.4899 51.7637 29.5997C56.0476 32.3239 63.3847 34.3102 73.8886 28.3042C74.6206 27.8868 75.5347 27.9607 76.1892 28.4907L109.295 55.3803C109.756 55.758 110.172 56.1867 110.536 56.6582L118.722 48.4951L101.277 20.2197L98.1527 21.4931Z" fill="url(#paint7_linear)"/>
</g>
<defs>
<linearGradient id="paint0_linear" x1="24.4581" y1="58.244" x2="38.284" y2="75.9422" gradientUnits="userSpaceOnUse">
<stop stop-color="#FECA52"/>
<stop offset="0.515625" stop-color="#FFCE5F"/>
<stop offset="1" stop-color="#FF644E"/>
</linearGradient>
<linearGradient id="paint1_linear" x1="47.2956" y1="75.9368" x2="57.4762" y2="88.7357" gradientUnits="userSpaceOnUse">
<stop stop-color="#FECA52"/>
<stop offset="0.515625" stop-color="#FFCE5F"/>
<stop offset="1" stop-color="#FF644E"/>
</linearGradient>
<linearGradient id="paint2_linear" x1="33" y1="8" x2="-1" y2="59.5" gradientUnits="userSpaceOnUse">
<stop stop-color="#FFCB35"/>
<stop offset="0.369792" stop-color="#FFAA3D"/>
<stop offset="0.782248" stop-color="#FF694D"/>
<stop offset="1" stop-color="#FF0066"/>
</linearGradient>
<linearGradient id="paint3_linear" x1="15.7562" y1="52.8405" x2="26.7702" y2="66.7746" gradientUnits="userSpaceOnUse">
<stop stop-color="#FECA52"/>
<stop offset="0.515625" stop-color="#FFCE5F"/>
<stop offset="1" stop-color="#FF644E"/>
</linearGradient>
<linearGradient id="paint4_linear" x1="34.9217" y1="67.1571" x2="47.6182" y2="83.3474" gradientUnits="userSpaceOnUse">
<stop stop-color="#FECA52"/>
<stop offset="0.515625" stop-color="#FFCE5F"/>
<stop offset="1" stop-color="#FF644E"/>
</linearGradient>
<linearGradient id="paint5_linear" x1="99" y1="71.5" x2="-16" y2="18" gradientUnits="userSpaceOnUse">
<stop stop-color="#FFCB35"/>
<stop offset="0.49527" stop-color="#FFB33B"/>
<stop offset="0.78125" stop-color="#FF8945"/>
<stop offset="1" stop-color="#FF0066"/>
</linearGradient>
<linearGradient id="paint6_linear" x1="102" y1="4.5" x2="130" y2="60" gradientUnits="userSpaceOnUse">
<stop stop-color="#FFCB35"/>
<stop offset="0.582436" stop-color="#FFAA3D"/>
<stop offset="0.841244" stop-color="#FF694D"/>
<stop offset="1" stop-color="#FF0066"/>
</linearGradient>
<linearGradient id="paint7_linear" x1="49" y1="38" x2="116.976" y2="56.0679" gradientUnits="userSpaceOnUse">
<stop stop-color="#FECA52"/>
<stop offset="0.515625" stop-color="#FFCE5F"/>
<stop offset="1" stop-color="#FF644E"/>
</linearGradient>
<clipPath id="clip0">
<rect width="130" height="90" fill="white"/>
</clipPath>
</defs>
</svg>

<svg width="130" height="90" viewBox="0 0 130 90" fill="none" xmlns="http://www.w3.org/2000/svg"><g clip-path="url(#a)"><path d="M42.085 65.74a4.092 4.092 0 0 0 .374-5.786l-.226-.26a4.09 4.09 0 0 0-2.823-1.373h-.274a4.094 4.094 0 0 0-2.71 1.018l-5.515 4.825-5.022 4.393a4.098 4.098 0 0 0-.373 5.784l.23.263a4.13 4.13 0 0 0 5.81.373l3.86-3.376 6.669-5.861z" fill="url(#b)"/><path d="M56.875 75.993a4.108 4.108 0 0 0-2.712 1.017l-5.439 4.757a4.092 4.092 0 0 0-.379 5.79 4.127 4.127 0 0 0 5.81.377l5.438-4.757a4.09 4.09 0 0 0 .382-5.786 4.121 4.121 0 0 0-3.1-1.398z" fill="url(#c)"/><path d="M11.635 3.239L.577 51.31l8.84 4.95 22.875-37.08L11.635 3.24z" fill="url(#d)"/><path d="M29.292 60.157a4.094 4.094 0 0 0 .378-5.79l-.07-.08a4.09 4.09 0 0 0-2.825-1.386H26.5a4.094 4.094 0 0 0-2.71 1.02l-6.605 5.762a4.094 4.094 0 0 0-.378 5.79 4.146 4.146 0 0 0 5.828.503l.054-.046.5-.438 5.027-4.397 1.075-.938z" fill="url(#e)"/><path d="M52.3 71.642a4.064 4.064 0 0 0-1.015-2.974l-.059-.067a4.089 4.089 0 0 0-2.818-1.374h-.274a4.093 4.093 0 0 0-2.71 1.02l-.647.564-6.673 5.838-1.773 1.542a4.155 4.155 0 0 0-.294 5.883 4.185 4.185 0 0 0 2.8 1.36 4.083 4.083 0 0 0 2.984-1.011l9.086-7.947a4.071 4.071 0 0 0 1.392-2.834z" fill="url(#f)"/><path d="M106.738 58.532L74.684 32.504C62.41 39 53.717 35.657 49.562 33.013a4.658 4.658 0 0 1 .393-8.047L60.64 19.31a15.995 15.995 0 0 0-.788-.1 207.431 207.431 0 0 1-29.137 2.5l-18.676 30.27 4.163 3.162 4.895-4.283c3.398-2.973 8.572-2.638 11.555.749h.001l.07.081a8.079 8.079 0 0 1 1.884 3.95 8.05 8.05 0 0 1 5.058-1.374 8.142 8.142 0 0 1 5.621 2.76l.23.262a8.085 8.085 0 0 1 2.016 5.908v.012c.374-.038.751-.05 1.128-.037a8.145 8.145 0 0 1 5.622 2.76l-1.472 1.405 1.53-1.339a8.09 8.09 0 0 1 2.02 5.912c0 .027-.012.053-.014.08 4.484-.318 8.378 3.047 8.697 7.516.027.373.028.748.003 1.12a8.062 8.062 0 0 1-1.355 3.926l8.782 5.05a4.077 4.077 0 0 0 5.503-1.452 3.968 3.968 0 0 0-1.196-5.318l-13.984-9.656c-.012 0-.018-.022-.028-.03l-.941-.65a2.025 2.025 0 0 1-.466-2.832 2.041 2.041 0 0 1 2.784-.504l19.724 13.615a4.017 4.017 0 0 0 5.578-1.007l.002-.003a4 4 0 0 0-.984-5.53L68.835 62.363c-.012 0-.016-.022-.028-.03a2.027 2.027 0 0 1-.478-2.832 2.043 2.043 0 0 1 2.842-.477L93.177 74.58a4.276 4.276 0 0 0 5.945-1.021 4.242 4.242 0 0 0-.868-5.81l-23.677-17a2.025 2.025 0 0 1-.564-2.815 2.04 2.04 0 0 1 2.928-.489l1.619 1.15h.021l21.944 15.755c.041.03.071.067.11.097l.363.259c.069.047.135.099.197.155l.394.269a4.251 4.251 0 0 0 5.784-.797 4.147 4.147 0 0 0 .731-3.761 4.06 4.06 0 0 0-1.366-2.04z" fill="url(#g)"/><path d="M118.91.054L98.257 15.996l19.105 30.966c.126.065.244.143.353.234.328.336.525.776.559 1.244l2.862 4.638 8.832-4.952L118.91.054z" fill="url(#h)"/><path d="M98.153 21.493a18.212 18.212 0 0 1-12.586.456L74.724 18.44a5.927 5.927 0 0 0-4.519.393l-3.675 1.945c-.04.02-.073.043-.114.06l-14.564 7.71a.616.616 0 0 0-.35.535.557.557 0 0 0 .262.516c4.284 2.724 11.62 4.71 22.125-1.296a2.046 2.046 0 0 1 2.3.187l33.106 26.89c.461.377.877.806 1.241 1.277l8.186-8.163-17.445-28.275-3.124 1.273z" fill="url(#i)"/></g><defs><linearGradient id="b" x1="24.458" y1="58.244" x2="38.284" y2="75.942" gradientUnits="userSpaceOnUse"><stop stop-color="#FECA52"/><stop offset=".516" stop-color="#FFCE5F"/><stop offset="1" stop-color="#FF644E"/></linearGradient><linearGradient id="c" x1="47.296" y1="75.937" x2="57.476" y2="88.736" gradientUnits="userSpaceOnUse"><stop stop-color="#FECA52"/><stop offset=".516" stop-color="#FFCE5F"/><stop offset="1" stop-color="#FF644E"/></linearGradient><linearGradient id="d" x1="33" y1="8" x2="-1" y2="59.5" gradientUnits="userSpaceOnUse"><stop stop-color="#FFCB35"/><stop offset=".37" stop-color="#FFAA3D"/><stop offset=".782" stop-color="#FF694D"/><stop offset="1" stop-color="#F06"/></linearGradient><linearGradient id="e" x1="15.756" y1="52.84" x2="26.77" y2="66.775" gradientUnits="userSpaceOnUse"><stop stop-color="#FECA52"/><stop offset=".516" stop-color="#FFCE5F"/><stop offset="1" stop-color="#FF644E"/></linearGradient><linearGradient id="f" x1="34.922" y1="67.157" x2="47.618" y2="83.347" gradientUnits="userSpaceOnUse"><stop stop-color="#FECA52"/><stop offset=".516" stop-color="#FFCE5F"/><stop offset="1" stop-color="#FF644E"/></linearGradient><linearGradient id="g" x1="99" y1="71.5" x2="-16" y2="18" gradientUnits="userSpaceOnUse"><stop stop-color="#FFCB35"/><stop offset=".495" stop-color="#FFB33B"/><stop offset=".781" stop-color="#FF8945"/><stop offset="1" stop-color="#F06"/></linearGradient><linearGradient id="h" x1="102" y1="4.5" x2="130" y2="60" gradientUnits="userSpaceOnUse"><stop stop-color="#FFCB35"/><stop offset=".582" stop-color="#FFAA3D"/><stop offset=".841" stop-color="#FF694D"/><stop offset="1" stop-color="#F06"/></linearGradient><linearGradient id="i" x1="49" y1="38" x2="116.976" y2="56.068" gradientUnits="userSpaceOnUse"><stop stop-color="#FECA52"/><stop offset=".516" stop-color="#FFCE5F"/><stop offset="1" stop-color="#FF644E"/></linearGradient><clipPath id="a"><path fill="#fff" d="M0 0h130v90H0z"/></clipPath></defs></svg>
